material/.icons/material/border-inside.svg

<svg xmlns="http://www.w3.org/2000/svg" viewBox="0 0 24 24"><path d="M19 17h2v-2h-2m0 6h2v-2h-2M13 3h-2v8H3v2h8v8h2v-8h8v-2h-8m2 10h2v-2h-2m4-14h2V3h-2m0 6h2V7h-2m-2-4h-2v2h2M5 3H3v2h2m4-2H7v2h2M3 17h2v-2H3m2-8H3v2h2m2 12h2v-2H7m-4 2h2v-2H3v2z"/></svg>

<?xml version="1.0" encoding="UTF-8"?><!DOCTYPE svg PUBLIC "-//W3C//DTD SVG 1.1//EN" "http://www.w3.org/Graphics/SVG/1.1/DTD/svg11.dtd"><svg xmlns="http://www.w3.org/2000/svg" xmlns:xlink="http://www.w3.org/1999/xlink" version="1.1" id="mdi-border-inside" width="24" height="24" viewBox="0 0 24 24"><path d="M19,17H21V15H19M19,21H21V19H19M13,3H11V11H3V13H11V21H13V13H21V11H13M15,21H17V19H15M19,5H21V3H19M19,9H21V7H19M17,3H15V5H17M5,3H3V5H5M9,3H7V5H9M3,17H5V15H3M5,7H3V9H5M7,21H9V19H7M3,21H5V19H3V21Z" /></svg>
